icons/op-double-arrow-right-24.svg

<svg width="24" height="24" viewBox="0 0 24 24" fill="none" xmlns="http://www.w3.org/2000/svg">
<path d="M13.1529 11.1697L6.33708 5.31991C5.80557 4.89336 4.89888 4.89336 4.39863 5.31991C3.86712 5.77693 3.86712 6.53863 4.39863 6.99565L10.2765 11.9924L4.39863 16.9891C3.86712 17.4461 3.86712 18.1774 4.39863 18.6344C4.64875 18.8781 4.99267 19 5.36786 19C5.71177 19 6.05569 18.8781 6.33708 18.6344L13.1529 12.815C13.4343 12.6017 13.5594 12.2971 13.5594 11.9924C13.5594 11.6877 13.4343 11.383 13.1529 11.1697ZM19.5936 11.1697L12.7465 5.31991C12.2462 4.89336 11.3395 4.89336 10.8393 5.31991C10.2765 5.77693 10.2765 6.53863 10.8393 6.99565L16.6859 11.9924L10.8393 16.9891C10.2765 17.4461 10.2765 18.1774 10.8393 18.6344C11.0894 18.8781 11.4333 19 11.8085 19C12.1524 19 12.4963 18.8781 12.7465 18.6344L19.5936 12.815C19.8437 12.6017 20 12.2971 20 11.9924C20 11.6877 19.8437 11.383 19.5936 11.1697Z" fill="black"/>
</svg>

<svg xmlns="http://www.w3.org/2000/svg" width="24" height="24" viewBox="0 0 24 24"><path d="M13.153 11.17 6.337 5.32c-.531-.427-1.438-.427-1.938 0a1.08 1.08 0 0 0 0 1.676l5.878 4.996-5.878 4.997c-.532.457-.532 1.188 0 1.645.25.244.594.366.969.366.344 0 .688-.122.969-.366l6.816-5.819c.281-.213.406-.518.406-.823 0-.304-.125-.609-.406-.822Zm6.441 0-6.848-5.85c-.5-.427-1.407-.427-1.907 0-.562.457-.562 1.219 0 1.676l5.847 4.996-5.847 4.997c-.562.457-.562 1.188 0 1.645.25.244.594.366.97.366.343 0 .687-.122.937-.366l6.848-5.819c.25-.213.406-.518.406-.823 0-.304-.156-.609-.406-.822Z"/></svg>
